X:1
T:Dichterliebe, Op.48
T:Ich hab' im Traum geweinet
T:13. Ich hab' im Traum geweinet
T:Robert Schumann
T:Dichterliebe, Op.48
T:Heinrich Heine
T:OpenScore (CC0)
T:OpenScore (CC0)
C:Robert Schumann
Z:Heinrich Heine
Z:OpenScore (CC0)
%%score 1 { 2 | ( 3 4 ) }
L:1/8
Q:1/4=80
M:6/8
K:Gb
V:1 treble nm="Voice"
V:2 treble nm="Piano"
V:3 bass 
V:4 bass 
V:1
!p!"^Leise." B | B2 B!<(! B2 B!<)! |!>(! c3 B3!>)! | z6 | z2 z z2 G | G3/2 G/ G _F E D | E3 z2 z | %7
w: Ich|hab' im Traum ge-|wei- net,||mir|träum- te, du lä- gest im|Grab.|
 z z G G2 G | =G2 z z G G | B2 A z2 z | A3/2"^dim.""_dim." E/ E/ E/ E3/2 E/ =D | %11
w: Ich wach- te|auf, und die|Thrä- ne|floss noch von der Wan- ge her-|
 F2 z !fermata!z2!p! B | B2 B B2 B | c3 B3 | z6 | z2 z z2 G | G3/2 G/ G (_FE) D | E3 z2 z | %18
w: ab. Ich|hab' im Traum ge-|wei- net,||mir|träumt', du ver- lies- * sest|mich.|
 z2 z!<(! G G G | =G2!<)! z z G G | B2 A z z A |"^ritard." A2 E E2 =D | F2 z z2 z | z6 | %24
w: Ich wach- te|auf, und ich|wein- te noch|lan- ge bit- ter-|lich.||
 z2 z z2!pp! B | B2 B B2 B | c3 B2 B | B3/2 B/ B"^ritard." =c B A | d2 d d2 d | d3- d d d | %30
w: Ich|hab' im Traum ge-|wei- net, mir|träum- te, du wärst mir noch|gut. Ich wach- te|auf, _ und noch|
 d2 d- d3 | d d d _f2 f | e6 | z6 | z6 | z6 | z6 | z6 | z6 |] %39
w: im- mer _|strömt mei- ne Thrä- nen-|fluth.|||||||
V:2
 z | z6 | z6 | x2!pp! x4 | x6 | z6 | x2!pp! x4 | x6 |!<(! x4 x!<)! x | x6 | z6 | x6 | z6 | z6 | %14
 x2!pp! x4 | x6 | z6 | x2 x4 | x6 | x6 | x6 | z6 | x6 |!<(! x6!<)! |!>(! x6!>)! | x6 | x6 | %27
!<(! x3!<)!!>(! x3!>)! |[I:staff +1] [F,D]2!<(![I:staff -1] D D2 D!<)! | !>![D-__E]3 [B,D_E]3 | %30
 !>![_CD-=E]3 [=CDF]3 |!<(! [D_G]3!<)!!>(! [D_F]3!>)! | [DE]2 z ([DEc]3- | [DEc]3 [CEc]2) z | z6 | %35
 x2!pp! x4 | x6 | x6 | x6 |] %39
V:3
 z | z6 | z6 | z z .[E,G,B,] .[F,A,B,]z/.[E,G,B,]/.[=D,F,B,] | .[E,G,B,] z z z2 z | z6 | %6
 z z .[E,G,] .[_F,G,]z/.[E,G,]/.[D,G,] | .[E,G,] z z z2 z | z2 z !>![E,=G,] z z | %9
 z2 z !>![E,A,] z z | z6 | z z E, [=D,F,] !fermata!z z | z6 | z6 | %14
 z z .[E,G,B,] .[F,A,B,]z/.[E,G,B,]/.[=D,F,B,] | .[E,G,B,] z z z2 z | z6 | %17
 z z .[E,G,] .[_F,G,]z/.[E,G,]/.[D,G,] | .[E,G,] z z z2 z | z2 z [E,=G,] z z | z2 z [E,A,] z z | %21
 z6 | z z E, [=D,F,]2 [E,G,B,] | [E,G,B,]2 [E,G,B,] [E,G,B,]2 [E,G,B,] | [E,A,C]3 [E,G,B,]3- | %25
 [E,G,B,]6 | [E,A,C]3 [E,G,B,]3- | [E,G,B,]3 [G,=CE]3 | [D,,A,,]2 D, D,2 D, | [D,-__E,]3 [D,_E,]3 | %30
 [D,-=E,]3 [D,F,]3 | [B,,D,_G,]3 [_A,,D,_F,]3 | [=G,,D,E,]2 z ([G,,E,]3- | [G,,E,]3 [A,,E,]2) z | %34
"^" z6 | z z .[E,_G,B,] .[F,A,B,]z/.[E,G,B,]/.[=D,F,B,] | .[E,G,B,] z z z2 z | %37
 z2 z z2 .[=D,F,B,] | .[E,G,B,] z z z2 z |] %39
V:4
 x | x6 | x6 | z z .[E,,B,,] .[B,,,B,,]z/.[B,,,B,,]/.[B,,,B,,] | .[E,,B,,] z z z2 z | x6 | %6
 z z .[C,,G,,] .[D,,G,,]z/.[C,,G,,]/.[B,,,G,,] | .[C,,G,,] z z z2 z | z2 z [C,,=G,,] z z | %9
 z2 z [C,,A,,] z z | x6 | z z [C,,C,] [B,,,B,,] !fermata!z z | x6 | x6 | %14
 z z .[E,,B,,] .[B,,,B,,]z/.[B,,,B,,]/.[B,,,B,,] | .[E,,B,,] z z z2 z | x6 | %17
 z z .[C,,G,,] .[D,,G,,]z/.[C,,G,,]/.[B,,,G,,] | .[C,,G,,] z z z2 z | z2 z [C,,=G,,] z z | %20
 z2 z [C,,A,,] z z | x6 | z z [C,,C,] [B,,,B,,]2 [E,,B,,] | [E,,B,,]2 [E,,B,,] [E,,B,,]2 [E,,B,,] | %24
 [A,,,A,,]3 [E,,B,,]3- | [E,,B,,]6 | [A,,,A,,]3 [E,,B,,]3- | [E,,B,,]3 [A,,,A,,-]3 | x6 | %29
 G,,3 =G,,3 | A,,3 =A,,3 | x6 | x6 | x6 | x6 | z z .[B,,,B,,] .[B,,,B,,]z/.[B,,,B,,]/.[B,,,B,,] | %36
 .[E,,B,,] z z z2 z | z2 z z2 .[B,,,B,,] | .[E,,B,,] z z z2 z |] %39

